icons/file-settings-line.svg

<svg xmlns="http://www.w3.org/2000/svg" width="24" height="24" fill="none"><g clip-path="url(#a)"><g><path fill="#121212" d="M8.595 12.812C8.46821 12.2784 8.46821 11.7226 8.595 11.189L7.603 10.616L8.603 8.884L9.595 9.457C9.99316 9.07988 10.4745 8.80172 11 8.645V7.5H13V8.645C13.532 8.803 14.012 9.085 14.405 9.457L15.397 8.884L16.397 10.616L15.405 11.189C15.5316 11.7223 15.5316 12.2777 15.405 12.811L16.397 13.384L15.397 15.116L14.405 14.543C14.0068 14.9201 13.5255 15.1983 13 15.355V16.5H11V15.355C10.4745 15.1983 9.99316 14.9201 9.595 14.543L8.603 15.116L7.603 13.384L8.595 12.812ZM12 13.5C12.3978 13.5 12.7794 13.342 13.0607 13.0607C13.342 12.7794 13.5 12.3978 13.5 12C13.5 11.6022 13.342 11.2206 13.0607 10.9393C12.7794 10.658 12.3978 10.5 12 10.5C11.6022 10.5 11.2206 10.658 10.9393 10.9393C10.658 11.2206 10.5 11.6022 10.5 12C10.5 12.3978 10.658 12.7794 10.9393 13.0607C11.2206 13.342 11.6022 13.5 12 13.5ZM15 4H5V20H19V8H15V4ZM3 2.992C3 2.444 3.447 2 3.999 2H16L21 7V20.993C21.0009 21.1243 20.976 21.2545 20.9266 21.3762C20.8772 21.4979 20.8043 21.6087 20.7121 21.7022C20.6199 21.7957 20.5101 21.8701 20.3892 21.9212C20.2682 21.9723 20.1383 21.9991 20.007 22H3.993C3.73038 21.9982 3.47902 21.8931 3.29322 21.7075C3.10742 21.5219 3.00209 21.2706 3 21.008V2.992Z"/></g></g><defs><clipPath id="a"><rect width="24" height="24" fill="white"/></clipPath></defs></svg>

<svg width="24" height="24" fill="none" xmlns="http://www.w3.org/2000/svg"><g clip-path="url(#a)"><path d="M8.595 12.812a3.51 3.51 0 0 1 0-1.623l-.992-.573 1-1.732.992.573c.398-.377.88-.655 1.405-.812V7.5h2v1.145c.532.158 1.012.44 1.405.812l.992-.573 1 1.732-.992.573a3.511 3.511 0 0 1 0 1.622l.992.573-1 1.732-.992-.573c-.398.377-.88.655-1.405.812V16.5h-2v-1.145a3.496 3.496 0 0 1-1.405-.812l-.992.573-1-1.732.992-.572ZM12 13.5a1.5 1.5 0 1 0 0-3 1.5 1.5 0 0 0 0 3ZM15 4H5v16h14V8h-4V4ZM3 2.992C3 2.444 3.447 2 3.999 2H16l5 5v13.993A1 1 0 0 1 20.007 22H3.993A1 1 0 0 1 3 21.008V2.992Z" /></g><defs><clipPath id="a"><path fill="#fff" d="M0 0h24v24H0z"/></clipPath></defs></svg>
